X:0959
T:Mary's Dream.
M:C
L:1/8
Q:1/4=100
I: || ||
N:bar 7 is printed as |dBAB c2 d/e/|
Z:Jack Campin * www.campin.me.uk * 2009
K:G
  d |G2A2 B3c   |(de)(dg) d3(c/B/)| AG```AB   c3      (d/e/)|d<BGB  A2
(Bc)|d2d2 d3e/f/| g2  g2  g3 f/e/ | dB```AB   c3       d/e/ |dB`AB  G2z||
  B |d2e2 f3F   | B2  B2  E2zG    | BA```Bc   d2     d2     |g2^c2 Hd2
e=c |B2B2 B3c/A/| G2  G2  G3 B/c/ |(d>e)(d>g) g/a/ Hb2 g/e/ |d>BA>B G3 |]
<end>
<start>
